tools/download-figma-icons/icons/outlined-medium/waves.svg

<svg width="24" height="24" viewBox="0 0 24 24" fill="none" xmlns="http://www.w3.org/2000/svg">
<path fill-rule="evenodd" clip-rule="evenodd" d="M16.971 8.25C15.4647 8.25 14.6714 7.51988 14.0322 6.93168L14.0287 6.9285C13.4452 6.39 13.0223 6 12.0907 6C11.161 6 10.7395 6.38906 10.1554 6.9281L10.155 6.9285L10.1549 6.92863C9.51664 7.51735 8.72239 8.25 7.21425 8.25C5.70854 8.25 4.91513 7.51898 4.27652 6.93059L4.27425 6.9285L4.27119 6.92568C3.68852 6.38864 3.26687 6 2.337 6C1.926 6 1.59375 5.664 1.59375 5.25C1.59375 4.836 1.926 4.5 2.337 4.5C3.846 4.5 4.64025 5.23275 5.27775 5.8215C5.862 6.36075 6.28425 6.75 7.21425 6.75C8.14412 6.75 8.56645 6.36074 9.14984 5.82303L9.1515 5.8215L9.15354 5.81962C9.79144 5.23119 10.5841 4.5 12.0907 4.5C13.598 4.5 14.3914 5.23102 15.03 5.81941L15.0322 5.8215L15.0325 5.82173C15.6166 6.36011 16.0396 6.75 16.971 6.75C17.9016 6.75 18.3246 6.36011 18.9087 5.82174L18.909 5.8215L18.9113 5.81941C19.5499 5.23102 20.3433 4.5 21.8505 4.5C22.2615 4.5 22.5938 4.836 22.5938 5.25C22.5938 5.664 22.2615 6 21.8505 6C20.9199 6 20.4976 6.38926 19.9142 6.92697L19.9125 6.9285L19.909 6.93168C19.2699 7.51988 18.4765 8.25 16.971 8.25ZM16.971 14.25C15.4647 14.25 14.6714 13.5199 14.0322 12.9317L14.0287 12.9285C13.4452 12.39 13.0223 12 12.0907 12C11.161 12 10.7395 12.3891 10.1554 12.9281L10.155 12.9285L10.1549 12.9286L10.1549 12.9286C9.51663 13.5174 8.72239 14.25 7.21425 14.25C5.70854 14.25 4.91513 13.519 4.27652 12.9306L4.27425 12.9285L4.27119 12.9257C3.68852 12.3886 3.26687 12 2.337 12C1.926 12 1.59375 11.664 1.59375 11.25C1.59375 10.836 1.926 10.5 2.337 10.5C3.846 10.5 4.64025 11.2327 5.27775 11.8215C5.862 12.3608 6.28425 12.75 7.21425 12.75C8.14412 12.75 8.56645 12.3607 9.14984 11.823L9.1515 11.8215L9.15354 11.8196C9.79144 11.2312 10.5841 10.5 12.0907 10.5C13.598 10.5 14.3914 11.231 15.03 11.8194L15.0322 11.8215L15.0325 11.8217C15.6166 12.3601 16.0396 12.75 16.971 12.75C17.9016 12.75 18.3246 12.3601 18.9087 11.8217L18.909 11.8215L18.9113 11.8194C19.5499 11.231 20.3433 10.5 21.8505 10.5C22.2615 10.5 22.5938 10.836 22.5938 11.25C22.5938 11.664 22.2615 12 21.8505 12C20.9199 12 20.4976 12.3893 19.9142 12.927L19.9125 12.9285L19.909 12.9317C19.2699 13.5199 18.4765 14.25 16.971 14.25ZM14.0322 18.9317C14.6714 19.5199 15.4647 20.25 16.971 20.25C18.4765 20.25 19.2699 19.5199 19.909 18.9317L19.9125 18.9285L19.9142 18.927C20.4976 18.3893 20.9199 18 21.8505 18C22.2615 18 22.5938 17.664 22.5938 17.25C22.5938 16.836 22.2615 16.5 21.8505 16.5C20.3433 16.5 19.5499 17.231 18.9113 17.8194L18.909 17.8215L18.9087 17.8217C18.3246 18.3601 17.9016 18.75 16.971 18.75C16.0396 18.75 15.6166 18.3601 15.0325 17.8217L15.0322 17.8215L15.03 17.8194C14.3914 17.231 13.598 16.5 12.0907 16.5C10.5841 16.5 9.79144 17.2312 9.15354 17.8196L9.1515 17.8215L9.14984 17.823C8.56645 18.3607 8.14412 18.75 7.21425 18.75C6.28425 18.75 5.862 18.3608 5.27775 17.8215C4.64025 17.2327 3.846 16.5 2.337 16.5C1.926 16.5 1.59375 16.836 1.59375 17.25C1.59375 17.664 1.926 18 2.337 18C3.26687 18 3.68852 18.3886 4.27119 18.9257L4.27425 18.9285L4.27652 18.9306C4.91513 19.519 5.70854 20.25 7.21425 20.25C8.72239 20.25 9.51664 19.5174 10.1549 18.9286L10.155 18.9285L10.1554 18.9281C10.7395 18.3891 11.161 18 12.0907 18C13.0223 18 13.4452 18.39 14.0287 18.9285L14.0322 18.9317Z" fill="black"/>
</svg>

<svg width="24" height="24" viewBox="0 0 24 24" fill="none" xmlns="http://www.w3.org/2000/svg"><path fill-rule="evenodd" clip-rule="evenodd" d="M16.971 8.25c-1.506 0-2.3-.73-2.939-1.318l-.003-.004C13.445 6.39 13.022 6 12.09 6c-.93 0-1.351.39-1.936.928-.638.59-1.433 1.322-2.94 1.322-1.506 0-2.3-.731-2.938-1.32l-.003-.002-.003-.002C3.69 6.389 3.267 6 2.337 6a.746.746 0 0 1-.743-.75c0-.414.332-.75.743-.75 1.509 0 2.303.733 2.94 1.322.585.539 1.007.928 1.937.928.93 0 1.352-.39 1.936-.927l.002-.002.002-.001c.637-.589 1.43-1.32 2.937-1.32s2.3.731 2.939 1.32l.002.002c.585.538 1.008.928 1.939.928.93 0 1.354-.39 1.938-.928l.002-.003c.639-.588 1.432-1.319 2.94-1.319.41 0 .743.336.743.75s-.332.75-.744.75c-.93 0-1.352.39-1.936.927l-.002.002-.003.003c-.64.588-1.432 1.318-2.938 1.318Zm0 6c-1.506 0-2.3-.73-2.939-1.318l-.003-.004C13.445 12.39 13.022 12 12.09 12c-.93 0-1.351.39-1.936.928-.638.59-1.433 1.322-2.94 1.322-1.506 0-2.3-.731-2.938-1.32l-.003-.002-.003-.002C3.69 12.389 3.267 12 2.337 12a.746.746 0 0 1-.743-.75c0-.414.332-.75.743-.75 1.509 0 2.303.733 2.94 1.322.585.539 1.007.928 1.937.928.93 0 1.352-.39 1.936-.927l.002-.002.002-.001c.637-.589 1.43-1.32 2.937-1.32s2.3.731 2.939 1.32l.002.002c.585.538 1.008.928 1.939.928.93 0 1.354-.39 1.938-.928l.002-.003c.639-.588 1.432-1.319 2.94-1.319.41 0 .743.336.743.75s-.332.75-.744.75c-.93 0-1.352.39-1.936.927l-.002.002-.003.003c-.64.588-1.432 1.318-2.938 1.318Zm-2.939 4.682c.64.588 1.433 1.318 2.939 1.318s2.299-.73 2.938-1.318l.004-.003.001-.002c.584-.538 1.006-.927 1.936-.927a.746.746 0 0 0 .744-.75.746.746 0 0 0-.744-.75c-1.507 0-2.3.731-2.939 1.32l-.002.002c-.584.538-1.007.928-1.938.928s-1.354-.39-1.938-.928l-.003-.003c-.639-.588-1.432-1.319-2.94-1.319-1.506 0-2.299.731-2.936 1.32l-.002.002-.002.001c-.584.538-1.006.927-1.936.927-.93 0-1.352-.39-1.936-.928-.638-.59-1.432-1.322-2.941-1.322a.746.746 0 0 0-.743.75c0 .414.332.75.743.75.93 0 1.352.389 1.934.926l.003.003.003.002c.638.588 1.432 1.319 2.937 1.319 1.508 0 2.303-.733 2.94-1.321h.001c.585-.54 1.006-.929 1.936-.929.931 0 1.354.39 1.938.928l.003.004Z" fill="currentColor"/></svg>
